third_party/noto/noto_2/emoji_u1f321.svg

<svg enable-background="new 0 0 128 128" version="1.1" viewBox="0 0 128 128" xmlns="http://www.w3.org/2000/svg"><path d="m51.64 79.73v-60.18s-0.21-15.41 12.79-15.41 12.57 11.38 12.57 15.47-0.3 60.2-0.3 60.2 11.64 6.43 11.22 21.63c-0.37 13.55-10.59 22.65-24.85 22.44s-23.49-11.74-23.49-23.38c0-15.11 12.06-20.77 12.06-20.77z" fill="#A8D0D6"/><path d="m68.76 47.36-10.74-4.16s0-20.44 0.12-23.32c0.12-2.89 0.92-6.89 6.58-6.81s6.23 4.27 6.35 7.27c0.08 1.96-0.19 23.04-0.19 23.04l-2.12 3.98z" fill="#fff"/><path d="m68.41 86.96s-20.53 7.62-20.48 12.05c0.09 7.33 3.69 16.76 15.71 16.89 10.16 0.11 15.83-6.3 15.69-16.26-0.16-12.13-9.33-14.76-9.33-14.76l-1.59 2.08z" fill="#DD0B2B"/><path d="m58.68 42.63 12.21 0.05-0.09 42.57s7.77 7.74 3.93 18.23c-3.26 8.92-14.58 11.05-21.57 5.54-7.98-6.29-5.17-15.11-2.13-19.44s7.47-4.89 7.47-4.89l0.18-42.06z" fill="#E7523C"/><path d="m62.71 42.64s-0.22 46.7-0.24 49.43c-0.03 3.36 0.17 7.94-5.57 7.91-5.63-0.03-6.35-6.44-3.8-8.86 1.9-1.79 4.57-1.39 4.57-1.39l0.31-47.1 4.73 0.01z" fill="#FED0BE"/><path d="m58.49 17.6c-3.23 0-5.22-0.26-5.31 2.4-0.1 2.62 2.11 2.46 5.31 2.46 3.1 0 5.18 0.22 5.18-2.4 0-2.85-2.11-2.46-5.18-2.46z" fill="#4B4A51"/><path d="m58.3 31.17c-3.41 0-5.04-0.16-5.13 2.34-0.1 2.78 2.05 2.53 5.16 2.46 3.11-0.06 5.31 0.42 5.34-2.18 0.03-2.74-1.72-2.62-5.37-2.62z" fill="#4B4A51"/><path d="m58.47 44.51c-3.23 0-5.22-0.26-5.31 2.4-0.1 2.62 2.11 2.46 5.31 2.46 3.1 0 5.18 0.22 5.18-2.4 0.01-2.84-2.11-2.46-5.18-2.46z" fill="#4B4A51"/><path d="m58.38 58.24c-3.4 0-5.06-0.16-5.11 2.34-0.06 2.76 1.95 2.52 5.04 2.54 3.1 0.02 5.48 0 5.42-2.25-0.06-2.76-1.71-2.63-5.35-2.63z" fill="#4B4A51"/><path d="m58.6 72.25c-3.23 0-5.22-0.26-5.31 2.4-0.1 2.62 2.11 2.46 5.31 2.46 3.1 0 5.18 0.22 5.18-2.4 0.01-2.84-2.1-2.46-5.18-2.46z" fill="#4B4A51"/></svg>

<?xml version="1.0" encoding="utf-8"?>
<!-- Generator: Adobe Illustrator 25.2.3, SVG Export Plug-In . SVG Version: 6.00 Build 0)  -->
<svg version="1.1" id="Layer_2" xmlns="http://www.w3.org/2000/svg" xmlns:xlink="http://www.w3.org/1999/xlink" x="0px" y="0px"
	 viewBox="0 0 128 128" style="enable-background:new 0 0 128 128;" xml:space="preserve">
<path style="fill:#A8D0D6;" d="M51.64,79.73c0,0,0-55.57,0-60.18S51.43,4.14,64.43,4.14S77,15.52,77,19.61s-0.3,60.2-0.3,60.2
	s11.64,6.43,11.22,21.63c-0.37,13.55-10.59,22.65-24.85,22.44s-23.49-11.74-23.49-23.38C39.58,85.39,51.64,79.73,51.64,79.73z"/>
<path style="fill:#FFFFFF;" d="M68.76,47.36L58.02,43.2c0,0,0-20.44,0.12-23.32c0.12-2.89,0.92-6.89,6.58-6.81
	c5.66,0.08,6.23,4.27,6.35,7.27c0.08,1.96-0.19,23.04-0.19,23.04L68.76,47.36z"/>
<path style="fill:#DD0B2B;" d="M68.41,86.96c0,0-20.53,7.62-20.48,12.05c0.09,7.33,3.69,16.76,15.71,16.89
	c10.16,0.11,15.83-6.3,15.69-16.26C79.17,87.51,70,84.88,70,84.88L68.41,86.96z"/>
<path style="fill:#E7523C;" d="M58.68,42.63l12.21,0.05L70.8,85.25c0,0,7.77,7.74,3.93,18.23c-3.26,8.92-14.58,11.05-21.57,5.54
	c-7.98-6.29-5.17-15.11-2.13-19.44s7.47-4.89,7.47-4.89L58.68,42.63z"/>
<path style="fill:#FED0BE;" d="M62.71,42.64c0,0-0.22,46.7-0.24,49.43c-0.03,3.36,0.17,7.94-5.57,7.91
	c-5.63-0.03-6.35-6.44-3.8-8.86c1.9-1.79,4.57-1.39,4.57-1.39l0.31-47.1L62.71,42.64z"/>
<path style="fill:#4B4A51;" d="M58.49,17.6c-3.23,0-5.22-0.26-5.31,2.4c-0.1,2.62,2.11,2.46,5.31,2.46c3.1,0,5.18,0.22,5.18-2.4
	C63.67,17.21,61.56,17.6,58.49,17.6z"/>
<path style="fill:#4B4A51;" d="M58.3,31.17c-3.41,0-5.04-0.16-5.13,2.34c-0.1,2.78,2.05,2.53,5.16,2.46
	c3.11-0.06,5.31,0.42,5.34-2.18C63.7,31.05,61.95,31.17,58.3,31.17z"/>
<path style="fill:#4B4A51;" d="M58.47,44.51c-3.23,0-5.22-0.26-5.31,2.4c-0.1,2.62,2.11,2.46,5.31,2.46c3.1,0,5.18,0.22,5.18-2.4
	C63.66,44.13,61.54,44.51,58.47,44.51z"/>
<path style="fill:#4B4A51;" d="M58.38,58.24c-3.4,0-5.06-0.16-5.11,2.34c-0.06,2.76,1.95,2.52,5.04,2.54c3.1,0.02,5.48,0,5.42-2.25
	C63.67,58.11,62.02,58.24,58.38,58.24z"/>
<path style="fill:#4B4A51;" d="M58.6,72.25c-3.23,0-5.22-0.26-5.31,2.4c-0.1,2.62,2.11,2.46,5.31,2.46c3.1,0,5.18,0.22,5.18-2.4
	C63.79,71.87,61.68,72.25,58.6,72.25z"/>
</svg>
